X: 20309
T: John Brennan's
R: reel
M: 4/4
K: Dmajor
D2 FA d2 cd|BAGB A3 A|BAGB ADFA|BAGF EGFE|
D2 FA d4|BAGB A4|BAGB ABde|f2 eg fd d2:|
f2 df eA de|fedB ADFA|BAGB ABdf|bagf egfe|
f2 df e2 de|fedB A3A|BAGB ABde|f2 eg fd d2:|

